X:037
L:1/16
M:2/4
K:G
(dc) | BGFG DGBd | cBAG F2Bd | gfed BAGB | c2A2 A2(dc) |
(dc) | BGBd gabg | abc'a gfed | ((3dfg) ((3fga) ((3gab) ((3abc') | bgfg e2(fg)|
bgfg egBd | FGAB cAGF | [1 GBdB egdc | B2G2 G2 :|] [2 GBdB egfa | b2g2 g2 |]

